src/standard/objects/shoe.svg

<svg xmlns="http://www.w3.org/2000/svg" viewBox="0 0 36 36">
  <path d="M27 17.38a.62.62 0 1 0 0 1.24 3.38 3.38 0 0 1 3.32 2.82 4.62 4.62 0 0 0-3.88 3.94h-3.88a4.6 4.6 0 0 0-9.12 0H5.62V14a1.38 1.38 0 1 1 2.75 0v1a4.63 4.63 0 0 0 9.25 0v-3a.62.62 0 0 0-.62-.62.63.63 0 0 0-.63.62v3a3.38 3.38 0 1 1-6.75 0v-1a2.63 2.63 0 0 0-5.25 0v12a.63.63 0 0 0 .63.62h25A1.61 1.61 0 0 0 31.62 25v-3A4.62 4.62 0 0 0 27 17.38Zm-9 5.24a3.37 3.37 0 0 1 3.31 2.76h-6.62A3.37 3.37 0 0 1 18 22.62Zm12 2.76h-2.31a3.37 3.37 0 0 1 2.68-2.69V25a.37.37 0 0 1-.37.38Z"/>
  <path d="M23 18.62a.62.62 0 0 0 .62-.62v-2a.62.62 0 0 0-.62-.62.63.63 0 0 0-.63.62v2a.63.63 0 0 0 .63.62Zm-3-1a.62.62 0 0 0 .62-.62v-3a.62.62 0 0 0-.62-.62.63.63 0 0 0-.63.62v3a.63.63 0 0 0 .63.62Z"/>
</svg>

<svg id="eedae61d-a555-4efb-a454-bca1156a1d8d" data-name="Icon" xmlns="http://www.w3.org/2000/svg" viewBox="0 0 36 36">
  <g>
    <path d="M27,17.38a.62.62,0,1,0,0,1.24,3.38,3.38,0,0,1,3.32,2.82,4.62,4.62,0,0,0-3.88,3.94H22.56a4.6,4.6,0,0,0-9.12,0H5.62V14a1.38,1.38,0,1,1,2.75,0v1a4.63,4.63,0,0,0,9.25,0V12a.62.62,0,0,0-.62-.62.63.63,0,0,0-.63.62v3a3.38,3.38,0,1,1-6.75,0V14a2.63,2.63,0,0,0-5.25,0V26a.63.63,0,0,0,.63.62H30A1.61,1.61,0,0,0,31.62,25V22A4.62,4.62,0,0,0,27,17.38Zm-9,5.24a3.37,3.37,0,0,1,3.31,2.76H14.69A3.37,3.37,0,0,1,18,22.62Zm12,2.76H27.69a3.37,3.37,0,0,1,2.68-2.69V25A.37.37,0,0,1,30,25.38Z"/>
    <path d="M23,18.62a.62.62,0,0,0,.62-.62V16a.62.62,0,0,0-.62-.62.63.63,0,0,0-.63.62v2A.63.63,0,0,0,23,18.62Z"/>
    <path d="M20,17.62a.62.62,0,0,0,.62-.62V14a.62.62,0,0,0-.62-.62.63.63,0,0,0-.63.62v3A.63.63,0,0,0,20,17.62Z"/>
  </g>
</svg>
